public/img/icons/order-rocket.svg

<svg width="30" height="30" viewBox="0 0 30 30" fill="none" xmlns="http://www.w3.org/2000/svg">
<path d="M7.78191 19.0287C7.3235 18.5705 7.15087 18.8007 7.04891 18.9028C4.4092 21.5425 2.06571 27.9117 3.30461 27.2896C7.81472 25.0251 8.5662 25.6993 11.2058 23.0598C11.3079 22.9577 11.5425 22.7895 11.0708 22.3177L7.78191 19.0287Z" fill="#FF0000"/>
<path d="M22.012 18.9934C21.8924 18.6127 22.143 18.4293 22.2484 18.3154C28.0745 12.0254 31.7773 3.64516 29.0333 0.901057C26.3038 -1.82827 18.182 1.98265 11.8938 7.76673C11.7694 7.88131 11.5242 8.0983 11.0855 8.00671L9.12631 7.54019C8.58235 7.41083 7.81375 7.62827 7.41836 8.02366L0.229504 15.2124C-0.165886 15.6079 -0.0374246 16.0025 0.515003 16.0892L5.71447 16.9063C6.2669 16.9932 7.04235 16.7407 7.43765 16.3452C7.43765 16.3452 7.70593 16.0762 7.97548 16.3457C9.46256 17.8326 12.226 20.596 13.6427 22.0128C13.9243 22.2944 13.6546 22.5622 13.6546 22.5622C13.2591 22.9577 13.0067 23.7329 13.0936 24.2855L13.9106 29.4848C13.9975 30.0375 14.392 30.1659 14.7874 29.7704L21.9764 22.5815C22.3717 22.1861 22.5892 21.4177 22.4597 20.8737L22.012 18.9934ZM20.4025 9.70591C19.1848 8.48828 19.1848 6.51431 20.4025 5.29686C21.62 4.07923 23.594 4.07923 24.8117 5.29686C26.0292 6.51422 26.0292 8.48828 24.8117 9.70582C23.594 10.9234 21.6199 10.9234 20.4025 9.70591Z" fill="#FF0000"/>
</svg>

<svg xmlns="http://www.w3.org/2000/svg" width="30" height="30" fill="none" viewBox="0 0 30 30"><path fill="red" d="M7.782 19.029c-.458-.459-.631-.228-.733-.126-2.64 2.64-4.983 9.009-3.744 8.387 4.51-2.265 5.261-1.59 7.9-4.23.103-.102.338-.27-.134-.742z"/><path fill="red" d="M22.012 18.993c-.12-.38.131-.564.236-.678 5.826-6.29 9.53-14.67 6.785-17.414-2.73-2.73-10.851 1.082-17.14 6.866-.124.114-.369.331-.808.24L9.127 7.54c-.544-.13-1.312.088-1.708.484L.23 15.212c-.396.396-.267.79.285.877l5.2.817c.552.087 1.327-.165 1.723-.56 0 0 .268-.27.537 0l5.668 5.667c.281.281.012.55.012.55-.396.395-.648 1.17-.561 1.723l.817 5.199c.087.553.481.68.876.285l7.19-7.189c.395-.395.612-1.163.483-1.707zm-1.61-9.287a3.117 3.117 0 1 1 4.409-4.41 3.117 3.117 0 0 1-4.408 4.41"/></svg>
